assets/icons/hamburger.svg

<?xml version="1.0" encoding="UTF-8" standalone="no"?>
<svg width="20px" height="14px" viewBox="0 0 20 14" version="1.1" xmlns="http://www.w3.org/2000/svg" xmlns:xlink="http://www.w3.org/1999/xlink">
    <!-- Generator: Sketch 39 (31667) - http://www.bohemiancoding.com/sketch -->
    <title>Artboard</title>
    <desc>Created with Sketch.</desc>
    <defs></defs>
    <g id="Page-1" stroke="none" stroke-width="1" fill="none" fill-rule="evenodd">
        <g id="Artboard" fill="#FEFEFE">
            <path d="M0,2.2223 L20,2.2223 L20,0.0003 L0,0.0003 L0,2.2223 Z M0,7.7773 L20,7.7773 L20,5.5553 L0,5.5553 L0,7.7773 Z M0,13.3333 L20,13.3333 L20,11.1113 L0,11.1113 L0,13.3333 Z" id="Page-1"></path>
        </g>
    </g>
</svg>

<svg viewBox="0 0 20 14" xmlns="http://www.w3.org/2000/svg"><path d="M0 2.222h20V0H0v2.222zm0 5.555h20V5.555H0v2.222zm0 5.556h20V11.11H0v2.223z" fill-rule="evenodd"/></svg>
